src/pos-icons/sign-direction.svg

<svg height="24" viewBox="0 0 24 24" width="24" xmlns="http://www.w3.org/2000/svg"><path d="m11 12h-7.5l2.5-2.5-2.5-2.5h7.5v-4l1-1 1 1v4h5l2.5 2.5-2.5 2.5h-5v8a2 2 0 0 1 2 2h-6a2 2 0 0 1 2-2z"/></svg>

<?xml version="1.0" encoding="UTF-8"?><!DOCTYPE svg PUBLIC "-//W3C//DTD SVG 1.1//EN" "http://www.w3.org/Graphics/SVG/1.1/DTD/svg11.dtd"><svg xmlns="http://www.w3.org/2000/svg" xmlns:xlink="http://www.w3.org/1999/xlink" version="1.1" id="mdi-sign-direction" width="24" height="24" viewBox="0 0 24 24"><path d="M11,12H3.5L6,9.5L3.5,7H11V3L12,2L13,3V7H18L20.5,9.5L18,12H13V20A2,2 0 0,1 15,22H9A2,2 0 0,1 11,20V12Z" /></svg>
